icons/csv.svg

<svg width="16" height="16" viewBox="0 0 16 16" fill="none" xmlns="http://www.w3.org/2000/svg">
<path d="M5 9V8H7V9H5Z" fill="#67CB65"/>
<path d="M8 9V8H10V9H8Z" fill="#67CB65"/>
<path d="M5 10V11H7V10H5Z" fill="#67CB65"/>
<path d="M8 10V11H10V10H8Z" fill="#67CB65"/>
<path fill-rule="evenodd" clip-rule="evenodd" d="M2 3.91667C2 3.41041 2.44772 3 3 3H7L8.08333 4H13.0833C13.6356 4 14.0833 4.41041 14.0833 4.91667L14 13.0833C14 13.5896 13.5523 14 13 14H3C2.44772 14 2 13.5896 2 13.0833V3.91667ZM4.5 6C4.77614 6 5 6.22386 5 6.5V7H7V6.5C7 6.22386 7.22386 6 7.5 6C7.77614 6 8 6.22386 8 6.5V7L10 7V6.5C10 6.22386 10.2239 6 10.5 6C10.7761 6 11 6.22386 11 6.5V7H12.5C12.7761 7 13 7.22386 13 7.5C13 7.77614 12.7761 8 12.5 8H11V9H12.5C12.7761 9 13 9.22386 13 9.5C13 9.77614 12.7761 10 12.5 10H11V11H12.5C12.7761 11 13 11.2239 13 11.5C13 11.7761 12.7761 12 12.5 12H11V12.5C11 12.7761 10.7761 13 10.5 13C10.2239 13 10 12.7761 10 12.5V12H8V12.5C8 12.7761 7.77614 13 7.5 13C7.22386 13 7 12.7761 7 12.5V12H5V12.5C5 12.7761 4.77614 13 4.5 13C4.22386 13 4 12.7761 4 12.5V12H3.5C3.22386 12 3 11.7761 3 11.5C3 11.2239 3.22386 11 3.5 11H4L4 10H3.5C3.22386 10 3 9.77614 3 9.5C3 9.22386 3.22386 9 3.5 9H4V8H3.5C3.22386 8 3 7.77614 3 7.5C3 7.22386 3.22386 7 3.5 7H4V6.5C4 6.22386 4.22386 6 4.5 6Z" fill="#67CB65"/>
</svg>

<svg xmlns="http://www.w3.org/2000/svg" width="16" height="16" fill="none"><path fill="#67CB65" d="M5 9V8h2v1H5ZM8 9V8h2v1H8ZM5 10v1h2v-1H5ZM8 10v1h2v-1H8Z"/><path fill="#67CB65" fill-rule="evenodd" d="M2 3.917C2 3.41 2.448 3 3 3h4l1.083 1h5c.553 0 1 .41 1 .917L14 13.083c0 .507-.448.917-1 .917H3c-.552 0-1-.41-1-.917V3.917ZM4.5 6a.5.5 0 0 1 .5.5V7h2v-.5a.5.5 0 0 1 1 0V7h2v-.5a.5.5 0 0 1 1 0V7h1.5a.5.5 0 0 1 0 1H11v1h1.5a.5.5 0 0 1 0 1H11v1h1.5a.5.5 0 0 1 0 1H11v.5a.5.5 0 0 1-1 0V12H8v.5a.5.5 0 0 1-1 0V12H5v.5a.5.5 0 0 1-1 0V12h-.5a.5.5 0 0 1 0-1H4v-1h-.5a.5.5 0 0 1 0-1H4V8h-.5a.5.5 0 0 1 0-1H4v-.5a.5.5 0 0 1 .5-.5Z" clip-rule="evenodd"/></svg>
